X:292
T:Reel 292
M:4/4
K:Cmaj
L:1/8
E|F2G,F, D2DC|DG,G,F, G,2EF|D2DF EDCE|DGGF D2EF|DG,G,A, B,2B,C|DGGA FDCA,|G,2G,F, D,2DF|EGDB, C2|EC|B,2GB, FDCA,|B,GGF D2C2|DCGC FDB,C|DGGA B2GF|DGGE DCB,G,|DBGF DECD|DCDF EDEF|GEFD C2|B,C|DGGA BGAF|DFGD B,CB,2|DGGA B2Ac|dBGF D2GF|DGGF DEFD|DCDC FDC2|DEGA GABc|dGFD C2|
